src/lib/packages/icons/src/assets/line/rotate-left-circle.svg

<svg width="24" height="24" viewBox="0 0 24 24" fill="none" xmlns="http://www.w3.org/2000/svg">
<path d="M16.75 12C16.75 14.619 14.619 16.75 12 16.75C10.185 16.75 8.55509 15.7391 7.74609 14.1111C7.56109 13.7401 7.71298 13.29 8.08398 13.106C8.45698 12.921 8.90609 13.0731 9.09009 13.4441C9.64309 14.5581 10.758 15.25 12 15.25C13.792 15.25 15.25 13.792 15.25 12C15.25 10.208 13.792 8.75 12 8.75C11.021 8.75 10.1221 9.19599 9.51709 9.91699H10.2229C10.6369 9.91699 10.9729 10.253 10.9729 10.667C10.9729 11.081 10.6369 11.417 10.2229 11.417H8C7.586 11.417 7.25 11.081 7.25 10.667V8.44507C7.25 8.03107 7.586 7.69507 8 7.69507C8.414 7.69507 8.75 8.03107 8.75 8.44507V8.54297C9.612 7.73397 10.765 7.25 12 7.25C14.619 7.25 16.75 9.381 16.75 12ZM22.75 12C22.75 17.928 17.928 22.75 12 22.75C6.072 22.75 1.25 17.928 1.25 12C1.25 6.072 6.072 1.25 12 1.25C17.928 1.25 22.75 6.072 22.75 12ZM21.25 12C21.25 6.899 17.101 2.75 12 2.75C6.899 2.75 2.75 6.899 2.75 12C2.75 17.101 6.899 21.25 12 21.25C17.101 21.25 21.25 17.101 21.25 12Z" fill="currentColor"/>
</svg>

<svg xmlns="http://www.w3.org/2000/svg" width="24" height="24" fill="none"><path fill="currentColor" d="M16.75 12A4.756 4.756 0 0 1 12 16.75a4.724 4.724 0 0 1-4.254-2.639.75.75 0 1 1 1.344-.667A3.23 3.23 0 0 0 12 15.25 3.254 3.254 0 0 0 15.25 12 3.254 3.254 0 0 0 12 8.75c-.979 0-1.878.446-2.483 1.167h.706a.75.75 0 0 1 0 1.5H8a.75.75 0 0 1-.75-.75V8.445a.75.75 0 0 1 1.5 0v.098A4.75 4.75 0 0 1 12 7.25 4.756 4.756 0 0 1 16.75 12Zm6 0c0 5.928-4.822 10.75-10.75 10.75S1.25 17.928 1.25 12 6.072 1.25 12 1.25 22.75 6.072 22.75 12Zm-1.5 0c0-5.101-4.149-9.25-9.25-9.25S2.75 6.899 2.75 12s4.149 9.25 9.25 9.25 9.25-4.149 9.25-9.25Z"/></svg>
